X:  1
T: Drive the Cold Winter Away   (Am)
O: Playford 1651
B: Playford 1651
B: Barnes v.1 p.31
M: 6/8
L: 1/8
%Q: 110
R: Jig
K: Am
[eA] |\
"Am"c>BA e2a | "C(Em)"g>fe "C"c'2c |\
"Dm"d2e "(G7)"f>gf | "C"e3- "(E7)"e2 :: a |\
"C"g>fe g2g | "Dm"f>ed "(G7)"f2f |
"Am"e>dc "(G)"B2A | "F"c'3- c'2a |\
"C"g>fe g2g | "Dm"f>ed "(G7)"f2f "I"|\
"Am"e>dc "E(m)"B>AB | "Am"A3- A2 :|
